X: 14
T:Muiñeira de Freixido
M:6/8
L:1/8
Q:200
R:Muiñeira
A:Galicia
N:Repertorio básic
K:C
CDE| EDC EDC | G2E CDE| EDE FGA | G2E CDE| EDC EDC | G2E CDE| ECE DB,D |
 C3 :|
|: GAB | c3- c_BA | _B3- BAG | A3- AGF | GEC GAB | c3- c_BA | _B3- BAG |
 A3- AGF | G2E CDE | F2A AGF | G2E CDE | F2A AGF | G3- GFE | DG3 F/2E/2D
/2 | C3 :|

